X:1528
T:Girl With the Laughing Eyes, The
R:reel
N:"collected from F. O'Neill"
B:"O'Neill's Dance Music of Ireland, 1528"
T: an cailin leis na miog.suile.
Z:transcribed by John B. Walsh, walsh@math.ubc.ca 8/23/96
M:C|
L:1/8
K:D
((3ABc)|d2 (FG) Adef|gfed fdBc|d2(FG)A2 (AB)|AGEG FDDA|
d2 (FG) Adef|gfed fdBc|d2(FG) A2 (ag)|faef d2||
((3dfg)|afbf afdf|gfed cd ((3efg)|afbf afdf|abag fd ((3efg)|
afbf afdf|gfed gdBc|d2FG A2 (ag)|faef d2||


